svgs/sharp-light/megaphone.svg

<svg xmlns="http://www.w3.org/2000/svg" viewBox="0 0 576 512"><!--! Font Awesome Pro 6.6.0 by @fontawesome - https://fontawesome.com License - https://fontawesome.com/license (Commercial License) Copyright 2024 Fonticons, Inc. --><path d="M576 32l-32 0 0 27.5L32 187.5 32 176l0-16L0 160l0 16 0 19.5L0 208l0 96 0 12.5L0 336l0 16 32 0 0-16 0-11.5 131.7 32.9c-2.4 8.4-3.7 17.4-3.7 26.6c0 53 43 96 96 96c46.2 0 84.7-32.6 93.9-76L544 452.5l0 27.5 32 0 0-40 0-368 0-40zM544 419.5L32 291.5l0-71 512-128 0 327zM192 384c0-6.5 1-12.9 2.8-18.8l124 31C313.1 425.7 287.2 448 256 448c-35.3 0-64-28.7-64-64z"/></svg>

<svg xmlns="http://www.w3.org/2000/svg" viewBox="0 0 576 512"><!--! Font Awesome Pro 6.4.0 by @fontawesome - https://fontawesome.com License - https://fontawesome.com/license (Commercial License) Copyright 2023 Fonticons, Inc. --><path d="M576 32H544V59.5L32 187.5V176 160H0v16 19.5V208v96 12.5V336v16H32V336 324.5l131.7 32.9c-2.4 8.4-3.7 17.4-3.7 26.6c0 53 43 96 96 96c46.2 0 84.7-32.6 93.9-76L544 452.5V480h32V440 72 32zM544 419.5L32 291.5v-71l512-128v327zM192 384c0-6.5 1-12.9 2.8-18.8l124 31C313.1 425.7 287.2 448 256 448c-35.3 0-64-28.7-64-64z"/></svg>
